resources/haticons/SVG/fill-bag.svg

<!-- Generated by IcoMoon.io -->
<svg version="1.1" xmlns="http://www.w3.org/2000/svg" width="24" height="24" viewBox="0 0 24 24">
<title>fill-bag</title>
<path d="M21.588 20.801l-1.381-15.564c-0.025-0.308-0.283-0.541-0.596-0.541h-2.911c-0.005-2.588-2.111-4.695-4.7-4.695s-4.695 2.106-4.7 4.695h-2.911c-0.308 0-0.566 0.233-0.596 0.541l-1.381 15.564v0.055c0 1.734 1.595 3.145 3.552 3.145h12.072c1.957 0 3.552-1.411 3.552-3.145 0-0.020 0-0.035 0-0.055zM12 1.192c1.933 0 3.502 1.57 3.507 3.502h-7.015c0.005-1.933 1.575-3.502 3.507-3.502zM18.036 22.803h-12.072c-1.292 0-2.345-0.859-2.36-1.928l1.331-14.988h2.365v2.091c0 0.328 0.268 0.596 0.596 0.596s0.596-0.268 0.596-0.596v-2.091h7.015v2.091c0 0.328 0.268 0.596 0.596 0.596s0.596-0.268 0.596-0.596v-2.091h2.365l1.331 14.993c-0.015 1.063-1.068 1.923-2.36 1.923zM14.479 12.41l-3.517 3.517-1.436-1.436c-0.233-0.233-0.611-0.233-0.845 0s-0.233 0.611 0 0.845l1.858 1.858c0.114 0.114 0.268 0.174 0.422 0.174s0.303-0.060 0.422-0.174l3.94-3.94c0.233-0.233 0.233-0.611 0-0.845-0.233-0.229-0.611-0.229-0.845 0z"></path>
</svg>

<svg xmlns="http://www.w3.org/2000/svg" width="24" height="24"><path d="M21.588 20.801L20.207 5.237a.591.591 0 0 0-.596-.541H16.7C16.695 2.108 14.589.001 12 .001S7.305 2.107 7.3 4.696H4.389a.598.598 0 0 0-.596.541L2.412 20.801v.055c0 1.734 1.595 3.145 3.552 3.145h12.072c1.957 0 3.552-1.411 3.552-3.145v-.055zM12 1.192a3.512 3.512 0 0 1 3.507 3.502H8.492a3.512 3.512 0 0 1 3.507-3.502zm6.036 21.611H5.964c-1.292 0-2.345-.859-2.36-1.928L4.935 5.887H7.3v2.091c0 .328.268.596.596.596s.596-.268.596-.596V5.887h7.015v2.091c0 .328.268.596.596.596s.596-.268.596-.596V5.887h2.365l1.331 14.993c-.015 1.063-1.068 1.923-2.36 1.923zM14.479 12.41l-3.517 3.517-1.436-1.436a.598.598 0 0 0-.845.845l1.858 1.858a.598.598 0 0 0 .844 0l3.94-3.94a.598.598 0 0 0 0-.845.606.606 0 0 0-.845 0z"/></svg>
